public/icons/icons8-cross.svg

<svg xmlns="http://www.w3.org/2000/svg" xmlns:xlink="http://www.w3.org/1999/xlink" viewBox="0,0,256,256" width="50px" height="50px"><g transform="translate(25.6,25.6) scale(0.8,0.8)"><g fill="#fa5252" fill-rule="nonzero" stroke="none" stroke-width="1" stroke-linecap="butt" stroke-linejoin="miter" stroke-miterlimit="10" stroke-dasharray="" stroke-dashoffset="0" font-family="none" font-weight="none" font-size="none" text-anchor="none" style="mix-blend-mode: normal"><path d="M-32,288v-320h320v320z" id="bgRectangle"></path></g><g fill="#ffffff" fill-rule="nonzero" stroke="none" stroke-width="1" stroke-linecap="butt" stroke-linejoin="miter" stroke-miterlimit="10" stroke-dasharray="" stroke-dashoffset="0" font-family="none" font-weight="none" font-size="none" text-anchor="none" style="mix-blend-mode: normal"><g transform="scale(5.12,5.12)"><path d="M25,2c-12.681,0 -23,10.319 -23,23c0,12.681 10.319,23 23,23c12.681,0 23,-10.319 23,-23c0,-12.681 -10.319,-23 -23,-23zM33.71,32.29c0.39,0.39 0.39,1.03 0,1.42c-0.2,0.19 -0.45,0.29 -0.71,0.29c-0.26,0 -0.51,-0.1 -0.71,-0.29l-7.29,-7.29l-7.29,7.29c-0.2,0.19 -0.45,0.29 -0.71,0.29c-0.26,0 -0.51,-0.1 -0.71,-0.29c-0.39,-0.39 -0.39,-1.03 0,-1.42l7.29,-7.29l-7.29,-7.29c-0.39,-0.39 -0.39,-1.03 0,-1.42c0.39,-0.39 1.03,-0.39 1.42,0l7.29,7.29l7.29,-7.29c0.39,-0.39 1.03,-0.39 1.42,0c0.39,0.39 0.39,1.03 0,1.42l-7.29,7.29z"></path></g></g></g></svg>

<svg xmlns="http://www.w3.org/2000/svg" width="50" height="50" viewBox="0 0 256 256"><g stroke-miterlimit="10" font-family="none" font-size="none" font-weight="none" text-anchor="none"><path fill="#fa5252" d="M-32 288V-32h320v320z" style="mix-blend-mode:normal" transform="matrix(.8 0 0 .8 25.6 25.6)"/><path fill="#fff" d="M25 2C12.319 2 2 12.319 2 25s10.319 23 23 23 23-10.319 23-23S37.681 2 25 2zm8.71 30.29c.39.39.39 1.03 0 1.42-.2.19-.45.29-.71.29-.26 0-.51-.1-.71-.29L25 26.42l-7.29 7.29c-.2.19-.45.29-.71.29-.26 0-.51-.1-.71-.29-.39-.39-.39-1.03 0-1.42L23.58 25l-7.29-7.29c-.39-.39-.39-1.03 0-1.42.39-.39 1.03-.39 1.42 0L25 23.58l7.29-7.29c.39-.39 1.03-.39 1.42 0 .39.39.39 1.03 0 1.42L26.42 25z" style="mix-blend-mode:normal" transform="translate(25.6 25.6) scale(4.096)"/></g></svg>
